config/expand/iconfont/module-menu/module-jichufuwu.svg

<?xml version="1.0" encoding="UTF-8"?>
<svg width="18px" height="22px" viewBox="0 0 18 22" version="1.1" xmlns="http://www.w3.org/2000/svg" xmlns:xlink="http://www.w3.org/1999/xlink">
    <!-- Generator: Sketch 53 (72520) - https://sketchapp.com -->
    <title>jichufuwu</title>
    <desc>Created with Sketch.</desc>
    <defs>
        <linearGradient x1="14.3387761%" y1="50%" x2="100%" y2="50%" id="linearGradient-1">
            <stop stop-color="#B7B7B7" offset="0%"></stop>
            <stop stop-color="#FFFFFF" offset="100%"></stop>
        </linearGradient>
        <linearGradient x1="53.9614324%" y1="4.99389777%" x2="53.9614324%" y2="85.0421567%" id="linearGradient-2">
            <stop stop-color="#B7B7B7" offset="0%"></stop>
            <stop stop-color="#FFFFFF" offset="100%"></stop>
        </linearGradient>
    </defs>
    <g id="Page-2" stroke="none" stroke-width="1" fill="none" fill-rule="evenodd">
        <g id="图标" transform="translate(-526.000000, -541.000000)">
            <g id="jichufuwu" transform="translate(526.000000, 541.000000)">
                <path d="M10.0017026,0.303171143 L17.029658,4.52366043 C17.6316908,4.88519838 18,5.53599759 18,6.23824619 L18,14.9535883 C18,15.6386243 17.6493931,16.2760015 17.0708162,16.6427753 L10.1973983,21 L10.1973983,18.6082773 L16.1800277,14.8825939 L16.1800277,6.84452784 L9.98986439,10.7514077 C9.36173509,11.1478473 8.56563879,11.1635299 7.92238369,10.7921357 L1.92613978,7.33010329 L1.92613978,14.8825939 L3.55069714,15.8308012 C2.92078338,16.4617816 2.9015903,16.8800083 2.81986515,17.8253007 L0.93605699,16.6418136 C0.353548363,16.2758573 2.02751393e-15,15.6362137 1.33226763e-15,14.9482891 L-6.66133815e-16,6.23415398 C-1.06274277e-15,5.5341165 0.366011688,4.88503031 0.965027912,4.52277069 L7.93707247,0.306373609 C8.57149037,-0.077295454 9.36609752,-0.0785279759 10.0017026,0.303171143 Z" id="Shape" fill="#333333" fill-rule="nonzero"></path>
                <path d="M5,18.5000001 C5,20.4329966 6.56700338,22 8.5,22 C10.4329966,22 12,20.4329966 12,18.5000001 C12,17.2495705 11.3329038,16.0941259 10.25,15.4689111 C9.16709625,14.8436963 7.83290375,14.8436963 6.74999997,15.4689111 C5.66709619,16.0941259 4.99999996,17.2495705 5,18.5000001 L5,18.5000001 Z" id="Path" fill="url(#linearGradient-1)"></path>
                <path d="M8.20202805,2.13303236 L3.60761594,4.60416087 C3.12122213,4.86577032 2.9389984,5.47214677 3.20060784,5.95854058 C3.29231688,6.12904935 3.43155048,6.26926989 3.60140723,6.36218097 L8.17121435,8.8618503 C8.48634697,9.0342268 8.8697211,9.02434665 9.17555647,8.83596683 L13.4516592,6.20209405 C13.921898,5.91244964 14.0682987,5.29644256 13.7786543,4.82620373 C13.6879208,4.67889752 13.5605222,4.5576511 13.408909,4.47431371 L9.15741125,2.13738865 C8.86028203,1.97406533 8.5006343,1.97242543 8.20202805,2.13303236 Z" id="Path" fill="url(#linearGradient-2)"></path>
            </g>
        </g>
    </g>
</svg>

<svg width="18" height="22" xmlns="http://www.w3.org/2000/svg"><defs><linearGradient x1="14.339%" y1="50%" x2="100%" y2="50%" id="a"><stop stop-color="#B7B7B7" offset="0%"/><stop stop-color="#FFF" offset="100%"/></linearGradient><linearGradient x1="53.961%" y1="4.994%" x2="53.961%" y2="85.042%" id="b"><stop stop-color="#B7B7B7" offset="0%"/><stop stop-color="#FFF" offset="100%"/></linearGradient></defs><g><path d="M10.002.303l7.028 4.22A2 2 0 0118 6.239v8.716a2 2 0 01-.93 1.689L10.198 21v-2.392l5.983-3.725V6.845L9.99 10.75a2 2 0 01-2.068.041L1.926 7.33v7.553l1.625.948c-.63.63-.65 1.049-.731 1.994L.936 16.642A2 2 0 010 14.948V6.234a2 2 0 01.965-1.711L7.937.306a2 2 0 012.065-.003z"/><path d="M5 18.5a3.5 3.5 0 107 0 3.5 3.5 0 00-7 0z"/><path d="M8.202 2.133L3.608 4.604A1 1 0 003.6 6.362l4.57 2.5a1 1 0 001.005-.026l4.276-2.634a1 1 0 00-.043-1.728L9.157 2.137a1 1 0 00-.955-.004z"/></g></svg>
